X:162
T:Yan de la Role
R:Branle
C:trad
A:Pyrnes
O:France
M:6/8
L:1/8
Q:1/4=150
K:Bb
GGG|B2AB2c|d3 dcB|A2Bc2d|B2A:|
|ABc|B3 ABG|A3D2G|_F2GA2c|B2A ABc|
B3 ABG|A3D2G|_F2GA2B|G3||
W:
W:Yan de la Role mon ami,
W:Ah que ta femme est mal coiffe.
W:Mne la moi, la coifferai
W:A l'ombrette,  l'ombrette
W:Mne la moi, la coifferai
W:A l'ombrette d'un pcher.
W:
W:Yan de la Role mon ami,
W:Ah que ta femme est mal lave.
W:Mne la moi, la laverai
W:A l'ombrette,  l'ombrette
W:Mne la moi, la laverai
W:A l'ombrette d'un pcher.
W:
W:Yan de la Role mon ami,
W:Ah que ta femme est mal chausse.
W:Mne la moi, la chausserai
W:A l'ombrette,  l'ombrette
W:Mne la moi, la chausserai
W:A l'ombrette d'un pcher.
W:
W:Yan de la Role mon ami,
W:Ah que ta femme est mal aime.
W:Mne la moi, je l'aimerai
W:A l'ombrette,  l'ombrette
W:Mne la moi, je l'aimerai.
W:A l'ombrette d'un pcher.
